X: 3273
T: BANKS O CART
%R: jig
B: James Kerr "Merry Melodies" v.3 p.30 #273
Z: 2016 John Chambers <jc:trillian.mit.edu>
M: 6/8
L: 1/8
K: G
|:\
vg2vd dcB | edc BAG | g2d dcB | eag fba |\
g2d dcB | edc BAG | cec BdB | ABG FED :|
|:\
GBd dBG | ege dBG | GBd dBG | FAG FED |\
GBd dBG | edc BAG | cec BdB | ABG FED :|

%%sep 1 1 500
%%sep 1 1 500

